icons/evolvere-blue-folders-flat-vivid-dark-fallback/apps/64/grisbi.svg

<?xml version="1.0" encoding="UTF-8" standalone="no"?>
<!-- Created with Inkscape (http://www.inkscape.org/) -->

<svg
   xmlns:dc="http://purl.org/dc/elements/1.1/"
   xmlns:cc="http://creativecommons.org/ns#"
   xmlns:rdf="http://www.w3.org/1999/02/22-rdf-syntax-ns#"
   xmlns:svg="http://www.w3.org/2000/svg"
   xmlns="http://www.w3.org/2000/svg"
   xmlns:sodipodi="http://sodipodi.sourceforge.net/DTD/sodipodi-0.dtd"
   xmlns:inkscape="http://www.inkscape.org/namespaces/inkscape"
   width="64"
   height="64"
   id="svg13094"
   version="1.1"
   inkscape:version="0.91+devel r"
   sodipodi:docname="grisbi.svg">
  <sodipodi:namedview
     id="base"
     pagecolor="#ffffff"
     bordercolor="#666666"
     borderopacity="1.0"
     inkscape:pageopacity="0"
     inkscape:pageshadow="2"
     inkscape:zoom="11.313709"
     inkscape:cx="34.584663"
     inkscape:cy="31.424355"
     inkscape:document-units="px"
     inkscape:current-layer="svg13094"
     showgrid="true"
     inkscape:snap-bbox="true"
     inkscape:bbox-paths="true"
     inkscape:bbox-nodes="true"
     inkscape:snap-bbox-edge-midpoints="true"
     inkscape:snap-bbox-midpoints="true"
     inkscape:object-paths="true"
     inkscape:snap-intersection-paths="true"
     inkscape:object-nodes="true"
     inkscape:snap-smooth-nodes="true"
     inkscape:snap-midpoints="true"
     inkscape:snap-object-midpoints="true"
     inkscape:snap-center="true"
     showguides="false"
     inkscape:guide-bbox="true"
     inkscape:window-width="1920"
     inkscape:window-height="1023"
     inkscape:window-x="-10"
     inkscape:window-y="35"
     inkscape:window-maximized="1"
     inkscape:snap-global="true"
     fit-margin-top="0"
     fit-margin-left="0"
     fit-margin-right="0"
     fit-margin-bottom="0"
     showborder="true"
     inkscape:showpageshadow="false"
     inkscape:snap-page="true">
    <inkscape:grid
       type="xygrid"
       id="grid3075"
       empspacing="5"
       visible="true"
       enabled="true"
       snapvisiblegridlinesonly="true"
       originx="1.6362304e-08px"
       originy="18px" />
    <sodipodi:guide
       orientation="0,1"
       position="-11,30"
       id="guide9148" />
    <sodipodi:guide
       orientation="1,0"
       position="32,70"
       id="guide9150" />
  </sodipodi:namedview>
  <defs
     id="defs13096" />
  <metadata
     id="metadata13099">
    <rdf:RDF>
      <cc:Work
         rdf:about="">
        <dc:format>image/svg+xml</dc:format>
        <dc:type
           rdf:resource="http://purl.org/dc/dcmitype/StillImage" />
        <dc:title></dc:title>
      </cc:Work>
    </rdf:RDF>
  </metadata>
  <g
     id="use3833"
     transform="translate(75.837199,1.2374368)"
     style="fill:#5da52e;fill-opacity:1">
    <path
       id="path3812"
       d="m -75.837199,2.7625633 0,29.9999997 0,28 2,2 30,0 30,0 2,-2 0,-28 0,-29.9999997 -32,0 -32,0 z"
       style="color:#000000;display:inline;overflow:visible;visibility:visible;fill:#5da52e;fill-opacity:1;fill-rule:nonzero;stroke:none;stroke-width:2.28571415;marker:none;enable-background:accumulate"
       inkscape:connector-curvature="0" />
    <path
       inkscape:connector-curvature="0"
       style="color:#000000;display:inline;overflow:visible;visibility:visible;fill:#5da52e;fill-opacity:1;fill-rule:nonzero;stroke:none;stroke-width:2.28571415;marker:none;enable-background:accumulate"
       d="m -75.837199,2.7625632 0,29.9999998 0,28 2,2 30,0 30,0 2,-2 0,-28 0,-29.9999998 -32,0 -32,0 z"
       id="path4095" />
    <path
       inkscape:connector-curvature="0"
       style="color:#000000;display:inline;overflow:visible;visibility:visible;fill:#5da52e;fill-opacity:1;fill-rule:nonzero;stroke:none;stroke-width:2.28571415;marker:none;enable-background:accumulate"
       d="m -75.837199,2.7625632 0,29.9999998 0,28 2,2 30,0 30,0 2,-2 0,-28 0,-29.9999998 -32,0 -32,0 z"
       id="path5441" />
  </g>
  <path
     inkscape:connector-curvature="0"
     style="color:#000000;display:inline;overflow:visible;visibility:visible;fill:#98ea3e;fill-opacity:1;fill-rule:nonzero;stroke:none;stroke-width:2.28571415;marker:none;enable-background:accumulate"
     d="M 2,0 0,1 0,4 32,4 64,4 64,1 62,0 32,0 2,0 Z"
     id="path4090" />
  <path
     d="M 64,6 62,4 64,3 Z"
     id="path3028"
     style="fill:#78c535;fill-opacity:1"
     inkscape:connector-curvature="0" />
  <g
     id="g3043"
     inkscape:export-filename="folder.png"
     inkscape:export-xdpi="90"
     inkscape:export-ydpi="90"
     transform="translate(-0.62500009,0.082283)" />
  <g
     id="scalable"
     transform="matrix(1.0385892,0,0,1.0385892,1214.7222,1878.8121)"
     inkscape:label="#g3701"
     style="fill:#ffffff" />
  <path
     inkscape:connector-curvature="0"
     style="fill:#a4f34f;fill-opacity:1;fill-rule:nonzero"
     d="M 0,3 0,6 2,4 Z"
     id="path4298"
     sodipodi:nodetypes="cccc" />
  <path
     style="color:#000000;fill:#e5f5c9;fill-opacity:0.94007158;fill-rule:nonzero;stroke:none;stroke-width:2.28571415;marker:none;visibility:visible;display:inline;overflow:visible;enable-background:accumulate"
     d="m 36.96875,14 c -3.280345,0 -6.56069,0.834239 -9.5,2.53125 C 22.946678,19.142069 19.898083,23.326643 18.625,28 l -5.65625,0 0,4 L 18,32 c -0.03663,0.670058 -0.03484,1.326164 0,2 l -5.03125,0 0,4 5.65625,0 c 0.420547,1.543105 1.037991,3.050258 1.875,4.5 5.246705,9.08756 16.88119,12.215455 25.96875,6.96875 l -2,-3.5 C 42.260215,47.248569 39.704989,48 36.96875,48 30.437139,48 24.902541,43.826685 22.84375,38 l 16.125,0 0,-4 L 22,34 c -0.02201,-0.33243 -0.03125,-0.661998 -0.03125,-1 0,-0.338002 0.0092,-0.66757 0.03125,-1 l 16.96875,0 0,-4 -16.125,0 c 2.058791,-5.826685 7.593389,-10 14.125,-10 2.736239,0 5.291465,0.751431 7.5,2.03125 l 2,-3.5 C 43.52944,14.834238 40.249095,14 36.96875,14 z"
     id="path3009"
     inkscape:connector-curvature="0" />
</svg>

<svg xmlns="http://www.w3.org/2000/svg" viewBox="0 0 64 64" xmlns:xlink="http://www.w3.org/1999/xlink"><defs><path id="0" d="m-75.837 2.763v30 28l2 2h30 30l2-2v-28-30h-32-32" color="#000"/></defs><g transform="translate(75.837 1.237)" fill="#5da52e"><use xlink:href="#0"/><use xlink:href="#0"/><use xlink:href="#0"/></g><path d="m2 0l-2 1v3h32 32v-3l-2-1h-30-30" fill="#98ea3e" color="#000"/><path d="m64 6l-2-2 2-1" fill="#78c535"/><path d="m0 3v3l2-2" fill="#a4f34f"/><path d="m36.969 14c-3.28 0-6.561.834-9.5 2.531-4.522 2.611-7.571 6.795-8.844 11.469h-5.656v4h5.03c-.037.67-.035 1.326 0 2h-5.03v4h5.656c.421 1.543 1.038 3.05 1.875 4.5 5.247 9.09 16.881 12.215 25.969 6.969l-2-3.5c-2.209 1.28-4.764 2.031-7.5 2.031-6.532 0-12.07-4.173-14.12-10h16.13v-4h-16.969c-.022-.332-.031-.662-.031-1 0-.338.009-.668.031-1h16.969v-4h-16.12c2.059-5.827 7.593-10 14.13-10 2.736 0 5.291.751 7.5 2.031l2-3.5c-2.939-1.697-6.22-2.531-9.5-2.531" fill="#e5f5c9" fill-opacity=".94" color="#000"/></svg>
